Font-Source/Egyptian2/svg-my/1347F.svg

<?xml version="1.0" encoding="UTF-8" standalone="no"?>
<svg
   width="1000"
   height="1000"
   version="1.1"
   id="svg1"
   sodipodi:docname="1347F.svg"
   inkscape:version="1.4.2 (f4327f4, 2025-05-13)"
   xmlns:inkscape="http://www.inkscape.org/namespaces/inkscape"
   xmlns:sodipodi="http://sodipodi.sourceforge.net/DTD/sodipodi-0.dtd"
   xmlns="http://www.w3.org/2000/svg"
   xmlns:svg="http://www.w3.org/2000/svg">
  <defs
     id="defs1" />
  <sodipodi:namedview
     id="namedview1"
     pagecolor="#ffffff"
     bordercolor="#666666"
     borderopacity="1.0"
     inkscape:showpageshadow="2"
     inkscape:pageopacity="0.0"
     inkscape:pagecheckerboard="0"
     inkscape:deskcolor="#d1d1d1"
     inkscape:zoom="1.51"
     inkscape:cx="967.8808"
     inkscape:cy="150"
     inkscape:window-width="1680"
     inkscape:window-height="998"
     inkscape:window-x="-8"
     inkscape:window-y="-8"
     inkscape:window-maximized="1"
     inkscape:current-layer="svg1" />
  <path
     id="path14"
     style="fill:#000000;stroke:none;stroke-width:57.7769"
     d="m 901.63086,0.00585938 c -0.4136,-0.0313921 -1.0278,0.09227485 -1.4668,0.11132812 -8.5953,42.4113385 -7.13556,78.5378545 4.28711,108.5585925 2.77725,7.29908 5.51426,14.11578 4.42188,22.56836 -13.15689,101.80494 -17.37696,156.15445 -17.37696,183.93945 -54.89242,0 -94.8808,-4.84355 -119.95507,-14.66992 -25.07426,-9.82625 -49.40607,-9.7138 -73.125,0.45117 -8.80989,-8.13219 -14.21683,-26.719 -16.25,-55.85937 16.94204,-6.09917 33.16328,-18.60303 48.75,-37.57813 15.58671,-18.97513 23.35931,-45.10797 23.35937,-78.31445 0,-33.206477 -14.53149,-55.621971 -43.67187,-67.142578 -29.14037,-11.520606 -61.69413,-14.674433 -97.61133,-9.591796 -35.9175,5.082793 -61.60074,32.341619 -77.1875,81.812504 -8.80986,11.5206 -18.72155,27.06592 -29.56446,46.71875 -6.09917,12.87597 -6.43711,20.19839 -1.01562,21.89257 5.4215,1.69419 9.81474,4.28346 13.20312,7.67188 -4.06611,2.71072 -5.75584,5.19062 -5.07812,7.5625 0.67767,2.37192 3.04327,3.94734 7.10937,4.625 -3.43675,3.61347 -6.4687,7.10014 -1.01562,10.60742 4.06611,2.37192 6.09375,9.35635 6.09375,20.87695 0,10.84292 6.19429,15.91206 18.39258,15.23438 26.42963,-0.67767 38.25759,4.72939 35.54687,16.25 -2.71078,11.52066 -22.76065,17.26562 -60.0332,17.26562 -37.95024,0 -64.9856,7.54605 -81.25,22.45508 -16.26439,14.90903 -65.03742,52.7566 -146.35938,113.74805 -28.46269,35.91719 -32.40568,59.34845 -11.73632,70.1914 26.67113,13.99138 155.63108,-1.26595 233.25195,-12.1875 -0.67772,2.03306 4.72939,22.53332 16.25,61.5 11.5206,38.96677 12.14226,80.12907 13.3125,143.76954 -68.23852,29.50872 -148.77064,82.42564 -241.59961,158.65625 -47.95122,28.27906 -61.78698,65.77845 -41.5,112.5 13.52487,35.04159 91.62926,31.31139 234.25391,-11.10743 104.50937,-43.64782 161.37819,-65.44531 170.59961,-65.44531 15.36902,18.44284 15.36902,43.63024 0,75.59766 -25.20527,0 -34.12923,8.92191 -26.75196,26.75 15.98384,1.22887 32.698,0.49927 50.21875,-2.26758 17.52074,-2.76684 30.90552,-24.79334 40.12696,-65.98242 9.22141,-41.1888 14.30449,-70.21517 15.22656,-87.1211 0.9233,-16.90593 -6.92868,-25.65861 -23.52735,-26.27343 32.58253,-46.10708 32.58253,-105.74393 0,-178.90039 15.28666,-137.29857 22.31422,-224.8191 21.11329,-262.64649 68.44596,-0.67767 122.2881,-1.35358 161.59375,-2.03125 39.30565,-0.67766 56.65421,-30.18991 51.91015,-88.4707 -2.5341,-41.71181 -5.00064,-83.43032 -7.44726,-125.14649 -0.21911,-3.73474 -0.22072,-16.4383 1.10742,-29.33984 6.9636,-21.38425 13.95698,-41.893918 20.98828,-61.726562 2.8186,-15.170544 -2.06086,-27.160212 -14.44336,-35.884766 L 917.42969,20.880859 C 915.44379,7.4426666 909.72017,2.834119 901.85547,0.1171875 901.79187,0.09454436 901.69986,0.0189091 901.63086,0.00585938 Z M 639.73633,67.712891 c 14.2872,0.504393 30.2333,3.099426 47.95898,7.673828 31.51229,8.132179 47.28321,26.379111 47.28321,54.841801 0,29.14038 -10.47617,53.92147 -31.48438,74.25195 -21.00816,20.33049 -34.52584,25.73755 -40.625,16.25 -6.77683,-8.80987 -1.59541,-21.763 15.68555,-38.70508 17.28114,-16.94209 21.67414,-33.50122 13.20312,-49.76562 -8.47103,-16.2644 -26.94354,-17.61616 -55.40625,-4.0625 -10.16527,-10.16524 -33.14532,-18.27583 -69.0625,-24.375 12.58497,-29.746155 42.65008,-37.161321 72.44727,-36.109379 z m -80.57227,52.359379 c 29.14029,2.03299 52.79631,9.46773 71.09375,22.34375 -0.25422,4.06611 0.28873,6.74092 1.4668,7.90039 l 0.11523,0.11132 c 0.0539,0.0382 0.28402,0.19306 0.3418,0.22657 0.11555,0.0563 0.43734,0.19016 0.56445,0.22656 2.18917,0.42871 5.82868,-1.81804 10.72071,-6.88477 9.48755,-9.82643 18.83764,-12.75556 27.98632,-8.68945 9.14875,4.06611 10.50073,12.85259 4.0625,26.40625 -6.43803,13.55366 -14.88654,25.15698 -25.39062,34.64453 -10.50408,9.48755 -13.09527,18.72433 -7.67383,27.87305 5.42121,9.14873 9.13883,17.14507 11.17188,23.92187 4.06634,37.27261 16.00727,64.41928 35.66015,81.36133 19.65277,16.94209 27.87575,48.37066 24.82618,94.45313 -3.04949,46.08242 -14.19627,123.13267 -26.39454,224.10742 l -114.34961,47.05469 c -0.34332,-69.44633 -13.20485,-137.49709 -32.93359,-204.13282 3.31738,-0.51075 5.97194,-0.93899 7.44922,-1.1289 21.3843,6.96357 41.89393,13.9589 61.72656,20.99023 15.17055,2.81865 27.16022,-2.06285 35.88477,-14.44531 l 12.75,-37.35156 c 13.43816,-1.98591 18.047,-7.7075 20.76367,-15.57227 0.0924,-0.47146 0.0222,-1.18325 0,-1.69336 -42.41133,-8.59531 -78.5217,-7.09617 -108.55664,4.28906 -10.28549,3.70241 -26.76441,5.10978 -38.59375,5.5293 -4.00635,-19.02831 -7.45482,-36.52569 -10.38086,-52.47266 -6.77682,-36.93371 3.13481,-59.80145 29.56445,-68.61132 26.42964,-8.8099 41.29912,-24.12862 44.6875,-45.81446 3.38845,-21.68588 -6.41192,-31.14821 -29.45312,-28.4375 -23.0412,2.71074 -32.84157,-4.72398 -29.45313,-22.34375 14.23133,-8.13218 19.30049,-13.87718 15.23438,-17.26562 -4.06607,-3.38844 -11.95011,-5.75399 -23.47071,-7.10938 0.67765,-5.42144 -4.39148,-10.60193 -15.23437,-15.3457 10.16524,-23.7189 20.75277,-40.27803 31.5957,-49.76562 10.16523,-5.42144 20.41584,-5.53382 30.91992,-0.45118 10.50414,5.08259 21.54391,8.91231 33.06446,11.62305 v -7.10937 c -7.45455,-0.67768 -16.57894,-4.05713 -27.42188,-10.15625 -10.84291,-6.09917 -21.99502,-7.11298 -33.51562,-3.04688 4.06611,-6.77684 7.78344,-11.84599 11.17187,-15.23437 z m 104.57813,18.3164 c -2.01075,0.0434 -4.13407,0.45399 -6.06446,0.98047 -7.45449,2.03308 -13.98573,7.44013 -19.74609,16.25 -5.76036,8.80986 -7.33773,15.23077 -4.62695,19.29688 -6.09939,2.71072 -9.59112,6.31579 -10.60742,10.7207 -1.01629,4.40497 1.01123,7.55874 6.09375,9.5918 5.08264,2.03305 12.51544,-1.4587 22.34179,-10.60743 9.82641,-9.14874 16.13482,-17.48496 18.84571,-24.93945 2.71089,-7.45454 3.16081,-13.19957 1.46679,-17.26562 -1.31266,-3.14987 -4.35188,-4.09972 -7.70312,-4.02735 z m -102.88477,7.1875 c -3.8517,0.0529 -7.44554,1.02766 -10.83398,2.9336 l -10.15625,9.14062 v 7.10938 h 5.07812 c 12.87598,6.77685 27.74551,6.77685 44.6875,0 l 16.25,3.04687 v -8.125 l -16.25,-1.01562 c -10.71583,-8.85223 -20.30169,-13.20632 -28.77539,-13.08985 z m 99.19141,2.59571 c 3.46777,-0.1589 4.92208,1.60406 4.28711,5.41601 -1.01629,6.09916 -3.94396,11.84419 -8.6875,17.26563 -4.74406,5.4215 -9.13674,9.02662 -13.20313,10.7207 -1.74593,0.75819 -3.05426,1.03403 -3.0664,0 -0.0109,-0.93176 1.0137,-2.93186 3.04687,-5.64258 2.14889,-3.29846 5.52906,-7.47935 -0.0137,-5.52734 -5.09296,2.12145 -3.85454,-1.68541 -2.04492,-5.07618 2.7109,-5.0826 6.42781,-10.03942 11.17187,-14.7832 3.55791,-1.52479 6.38223,-2.27575 8.46289,-2.37109 z m -101.90039,3.38476 c -2.71072,3.38844 -2.71072,7.10577 0,11.17188 -4.06611,-1.35544 -7.10764,-3.04507 -9.14063,-5.07813 0.67766,-2.03305 3.71912,-4.06073 9.14063,-6.09375 z m 12.1875,2.03125 13.20312,8.125 c -5.42121,0.67795 -10.49059,1.01563 -15.23437,1.01563 4.06611,-2.03305 4.74202,-5.07452 2.03125,-9.14063 z m 61.95312,28.4375 c 4.74407,2.71072 5.64518,5.30195 2.59571,7.67383 -3.04947,2.37175 -5.30253,2.14674 -6.65821,-0.56445 -1.35487,-2.71072 -0.004,-5.07639 4.0625,-7.10938 z m -89.98242,9.91211 c -1.18343,0.051 -2.33228,2.34036 -1.98633,4.41797 0.33915,2.03305 -0.44931,3.38489 -2.48242,4.0625 -2.03306,0.67767 -4.17404,-0.33633 -6.20703,-3.04688 -2.03305,-2.71072 -3.72274,-4.17382 -5.07813,-4.17382 -2.15815,0 -4.54196,0.70424 -3.04687,5.18945 2.03305,-2.03306 4.39866,-1.24483 7.10937,2.48242 2.71072,3.72724 5.86549,4.74114 9.25391,3.04688 3.38845,-1.69419 4.85224,-4.17209 4.51367,-7.56055 -0.33045,-3.30044 -1.21259,-4.45521 -2.07617,-4.41797 z m -16.6582,22.24805 h 0.002 c 7.14867,1.16731 14.42901,1.91474 21.55273,3.27343 v 0.22461 c -7.56091,0.31863 -15.12134,0.67353 -22.68164,1.01563 -3.8353,-1.27744 -2.30068,-4.48882 1.12696,-4.51367 z m 20.3125,6.54492 c -0.78218,1.56435 -2.32942,2.77067 -15.34571,7.10937 -6.34466,0 -6.35277,-1.77041 -3.04687,-5.07617 z m -60.03321,152.45508 c 4.74376,30.4957 8.79906,55.61481 12.1875,75.26757 -73.57312,-4.1533 -122.74624,-1.29644 -147.48828,8.57618 52.3662,-27.02457 97.48403,-55.00053 135.30078,-83.84375 z m 214.68555,299.78906 c 26.43491,44.87745 14.46326,98.07664 -35.94726,159.55273 -31.35286,19.05766 -80.99285,32.10219 -148.92383,39.17188 -67.93127,7.06969 -125.59133,31.52232 -172.92774,73.32617 27.04941,-63.935 50.71107,-105.27335 70.99805,-124.02344 20.28732,-18.75039 58.57759,-41.5101 114.82812,-68.25195 56.25059,-26.74216 113.57036,-53.3408 171.97266,-79.77539 z"
     sodipodi:nodetypes="ccsscsccssssccscsccscssscscscccccccssccccscsccccccsssscssccsccccccsscsccsscccccccccccsssscscccsccsccssscsssscssccccccccsccccscccccccccccccccsccscssscsscssccccsccccccccccscscc" />
</svg>

<?xml version="1.0" encoding="UTF-8" standalone="no"?>
<svg
   width="1000"
   height="1000"
   version="1.1"
   id="svg1"
   sodipodi:docname="1347F.svg"
   inkscape:version="1.4.2 (f4327f4, 2025-05-13)"
   xmlns:inkscape="http://www.inkscape.org/namespaces/inkscape"
   xmlns:sodipodi="http://sodipodi.sourceforge.net/DTD/sodipodi-0.dtd"
   xmlns="http://www.w3.org/2000/svg"
   xmlns:svg="http://www.w3.org/2000/svg">
  <defs
     id="defs1" />
  <sodipodi:namedview
     id="namedview1"
     pagecolor="#ffffff"
     bordercolor="#666666"
     borderopacity="1.0"
     inkscape:showpageshadow="2"
     inkscape:pageopacity="0.0"
     inkscape:pagecheckerboard="0"
     inkscape:deskcolor="#d1d1d1"
     inkscape:zoom="0.3775"
     inkscape:cx="1.3245033"
     inkscape:cy="515.23179"
     inkscape:window-width="1680"
     inkscape:window-height="998"
     inkscape:window-x="-8"
     inkscape:window-y="-8"
     inkscape:window-maximized="1"
     inkscape:current-layer="svg1" />
  <path
     id="path14"
     style="fill:#000000;stroke:none;stroke-width:57.7769"
     d="M 955.47852 0.005859375 C 955.40922 0.018909095 955.31745 0.09454436 955.25391 0.1171875 C 947.38914 2.834119 941.6656 7.4426655 939.67969 20.880859 L 902.32812 33.632812 C 889.94566 42.357366 885.06612 54.347034 887.88477 69.517578 C 894.91611 89.350222 901.90949 109.85989 908.87305 131.24414 C 895.78276 233.05766 891.49609 287.39859 891.49609 315.18359 C 836.60367 315.18359 796.61529 310.34004 771.54102 300.51367 C 746.46676 290.68742 722.13495 290.79987 698.41602 300.96484 C 689.60613 292.83265 684.19919 274.24584 682.16602 245.10547 C 699.10806 239.0063 715.3293 226.50244 730.91602 207.52734 C 746.50273 188.55221 754.27533 162.41937 754.27539 129.21289 C 754.27539 96.006412 739.7439 73.590919 710.60352 62.070312 C 681.46315 50.549706 648.90939 47.395879 612.99219 52.478516 C 577.07469 57.561309 551.39145 84.820139 535.80469 134.29102 C 526.99483 145.81162 517.08314 161.35694 506.24023 181.00977 C 500.14106 193.88574 499.80312 201.20816 505.22461 202.90234 C 510.64611 204.59653 515.03935 207.1858 518.42773 210.57422 C 514.36162 213.28494 512.67189 215.76484 513.34961 218.13672 C 514.02728 220.50864 516.39288 222.08406 520.45898 222.76172 C 517.02223 226.37519 513.99028 229.86186 519.44336 233.36914 C 523.50947 235.74106 525.53711 242.72549 525.53711 254.24609 C 525.53711 265.08901 531.7314 270.15815 543.92969 269.48047 C 570.35932 268.8028 582.18728 274.20986 579.47656 285.73047 C 576.76578 297.25113 556.71591 302.99609 519.44336 302.99609 C 481.49312 302.99609 454.45776 310.54214 438.19336 325.45117 C 421.92897 340.3602 373.15594 378.20777 291.83398 439.19922 C 263.37129 475.11641 259.4283 498.54767 280.09766 509.39062 C 306.76879 523.382 435.72874 508.12467 513.34961 497.20312 C 512.67189 499.23618 518.079 519.73643 529.59961 558.70312 C 541.12021 597.66989 541.74187 638.83219 542.91211 702.47266 C 474.67359 731.98138 394.14147 784.8983 301.3125 861.12891 C 253.36128 889.40797 239.52552 926.90736 259.8125 973.62891 C 273.33737 1008.6705 351.44176 1004.9403 494.06641 962.52148 C 598.57578 918.87366 655.4446 897.07617 664.66602 897.07617 C 680.03504 915.51901 680.03504 940.70641 664.66602 972.67383 C 639.46075 972.67383 630.53679 981.59574 637.91406 999.42383 C 653.8979 1000.6527 670.61206 999.9231 688.13281 997.15625 C 705.65355 994.38941 719.03833 972.36291 728.25977 931.17383 C 737.48118 889.98503 742.56426 860.95866 743.48633 844.05273 C 744.40963 827.1468 736.55765 818.39412 719.95898 817.7793 C 752.54151 771.67222 752.54151 712.03537 719.95898 638.87891 C 735.24564 501.58034 742.2732 414.05981 741.07227 376.23242 C 809.51823 375.55475 863.36037 374.87884 902.66602 374.20117 C 941.97167 373.52351 959.32023 344.01126 954.57617 285.73047 C 952.04207 244.01866 949.57553 202.30015 947.12891 160.58398 C 946.77069 154.47803 946.99606 124.39911 952.6582 108.67578 C 964.04343 78.640844 965.54056 42.528526 956.94531 0.1171875 C 956.50626 0.098134235 955.89219 -0.025532696 955.47852 0.005859375 z M 639.73633 67.712891 C 654.02353 68.217284 669.96963 70.812317 687.69531 75.386719 C 719.2076 83.518898 734.97852 101.76583 734.97852 130.22852 C 734.97852 159.3689 724.50235 184.14999 703.49414 204.48047 C 682.48598 224.81096 668.9683 230.21802 662.86914 220.73047 C 656.09231 211.9206 661.27373 198.96747 678.55469 182.02539 C 695.83583 165.0833 700.22883 148.52417 691.75781 132.25977 C 683.28678 115.99537 664.81427 114.64361 636.35156 128.19727 C 626.18629 118.03203 603.20624 109.92144 567.28906 103.82227 C 579.87403 74.076119 609.93914 66.660949 639.73633 67.712891 z M 559.16406 120.07227 C 588.30435 122.10526 611.96037 129.54 630.25781 142.41602 C 630.00359 146.48213 630.54654 149.15694 631.72461 150.31641 L 631.83984 150.42773 C 631.89374 150.46593 632.12386 150.62079 632.18164 150.6543 C 632.29719 150.7106 632.61898 150.84446 632.74609 150.88086 C 634.93526 151.30957 638.57477 149.06282 643.4668 143.99609 C 652.95435 134.16966 662.30444 131.24053 671.45312 135.30664 C 680.60187 139.37275 681.95385 148.15923 675.51562 161.71289 C 669.07759 175.26655 660.62908 186.86987 650.125 196.35742 C 639.62092 205.84497 637.02973 215.08175 642.45117 224.23047 C 647.87238 233.3792 651.59 241.37554 653.62305 248.15234 C 657.68939 285.42495 669.63032 312.57162 689.2832 329.51367 C 708.93597 346.45576 717.15895 377.88433 714.10938 423.9668 C 711.05989 470.04922 699.91311 547.09947 687.71484 648.07422 L 573.36523 695.12891 C 573.02191 625.68258 560.16038 557.63182 540.43164 490.99609 C 543.74902 490.48534 546.40358 490.0571 547.88086 489.86719 C 569.26516 496.83076 589.77479 503.82609 609.60742 510.85742 C 624.77797 513.67607 636.76764 508.79457 645.49219 496.41211 L 658.24219 459.06055 C 671.68035 457.07464 676.28919 451.35305 679.00586 443.48828 C 679.09826 443.01682 679.02806 442.30503 679.00586 441.79492 C 636.59453 433.19961 600.48416 434.69875 570.44922 446.08398 C 560.16373 449.78639 543.68481 451.19376 531.85547 451.61328 C 527.84912 432.58497 524.40065 415.08759 521.47461 399.14062 C 514.69779 362.20691 524.60942 339.33917 551.03906 330.5293 C 577.4687 321.7194 592.33818 306.40068 595.72656 284.71484 C 599.11501 263.02896 589.31464 253.56663 566.27344 256.27734 C 543.23224 258.98808 533.43187 251.55336 536.82031 233.93359 C 551.05164 225.80141 556.1208 220.05641 552.05469 216.66797 C 547.98862 213.27953 540.10458 210.91398 528.58398 209.55859 C 529.26163 204.13715 524.1925 198.95666 513.34961 194.21289 C 523.51485 170.49399 534.10238 153.93486 544.94531 144.44727 C 555.11054 139.02583 565.36115 138.91345 575.86523 143.99609 C 586.36937 149.07868 597.40914 152.9084 608.92969 155.61914 L 608.92969 148.50977 C 601.47514 147.83209 592.35075 144.45264 581.50781 138.35352 C 570.6649 132.25435 559.51279 131.24054 547.99219 135.30664 C 552.0583 128.5298 555.77563 123.46065 559.16406 120.07227 z M 663.74219 138.38867 C 661.73144 138.43207 659.60812 138.84266 657.67773 139.36914 C 650.22324 141.40222 643.692 146.80927 637.93164 155.61914 C 632.17128 164.429 630.59391 170.84991 633.30469 174.91602 C 627.2053 177.62674 623.71357 181.23181 622.69727 185.63672 C 621.68098 190.04169 623.7085 193.19546 628.79102 195.22852 C 633.87366 197.26157 641.30646 193.76982 651.13281 184.62109 C 660.95922 175.47235 667.26763 167.13613 669.97852 159.68164 C 672.68941 152.2271 673.13933 146.48207 671.44531 142.41602 C 670.13265 139.26615 667.09343 138.3163 663.74219 138.38867 z M 560.85742 145.57617 C 557.00572 145.62907 553.41188 146.60383 550.02344 148.50977 L 539.86719 157.65039 L 539.86719 164.75977 L 544.94531 164.75977 C 557.82129 171.53662 572.69082 171.53662 589.63281 164.75977 L 605.88281 167.80664 L 605.88281 159.68164 L 589.63281 158.66602 C 578.91698 149.81379 569.33112 145.4597 560.85742 145.57617 z M 660.04883 148.17188 C 663.5166 148.01298 664.97091 149.77594 664.33594 153.58789 C 663.31965 159.68705 660.39198 165.43208 655.64844 170.85352 C 650.90438 176.27502 646.5117 179.88014 642.44531 181.57422 C 640.69938 182.33241 639.39105 182.60825 639.37891 181.57422 C 639.36801 180.64246 640.39261 178.64236 642.42578 175.93164 C 644.57467 172.63318 647.95481 168.45229 642.41211 170.4043 C 637.31915 172.52575 638.55757 168.71889 640.36719 165.32812 C 643.07809 160.24552 646.795 155.2887 651.53906 150.54492 C 655.09697 149.02013 657.92129 148.26917 660.00195 148.17383 L 660.04883 148.17188 z M 558.14844 151.55664 C 555.43772 154.94508 555.43772 158.66241 558.14844 162.72852 C 554.08233 161.37308 551.0408 159.68345 549.00781 157.65039 C 549.68547 155.61734 552.72693 153.58966 558.14844 151.55664 z M 570.33594 153.58789 L 583.53906 161.71289 C 578.11785 162.39084 573.04847 162.72852 568.30469 162.72852 C 572.3708 160.69547 573.04671 157.654 570.33594 153.58789 z M 632.28906 182.02539 C 637.03313 184.73611 637.93424 187.32734 634.88477 189.69922 C 631.8353 192.07097 629.58224 191.84596 628.22656 189.13477 C 626.87169 186.42405 628.22256 184.05838 632.28906 182.02539 z M 542.30664 191.9375 C 541.12321 191.9885 539.97436 194.27786 540.32031 196.35547 C 540.65946 198.38852 539.871 199.74036 537.83789 200.41797 C 535.80483 201.09564 533.66385 200.08164 531.63086 197.37109 C 529.59781 194.66037 527.90812 193.19727 526.55273 193.19727 C 524.39458 193.19727 522.01077 193.90151 523.50586 198.38672 C 525.53891 196.35366 527.90452 197.14189 530.61523 200.86914 C 533.32595 204.59638 536.48072 205.61028 539.86914 203.91602 C 543.25759 202.22183 544.72138 199.74393 544.38281 196.35547 C 544.05236 193.05503 543.17022 191.90026 542.30664 191.9375 z M 525.64844 214.18555 L 525.65039 214.18555 C 532.79906 215.35286 540.0794 216.10029 547.20312 217.45898 L 547.20312 217.68359 C 539.64221 218.00222 532.08178 218.35712 524.52148 218.69922 C 520.68618 217.42178 522.2208 214.2104 525.64844 214.18555 z M 545.96094 220.73047 C 545.17876 222.29482 543.63152 223.50114 530.61523 227.83984 C 524.27057 227.83984 524.26246 226.06943 527.56836 222.76367 L 545.96094 220.73047 z M 485.92773 373.18555 C 490.67149 403.68125 494.72679 428.80036 498.11523 448.45312 C 424.54211 444.29982 375.36899 447.15668 350.62695 457.0293 C 402.99315 430.00473 448.11098 402.02877 485.92773 373.18555 z M 700.61328 672.97461 C 727.04819 717.85206 715.07654 771.05125 664.66602 832.52734 C 633.31316 851.585 583.67317 864.62953 515.74219 871.69922 C 447.81092 878.76891 390.15086 903.22154 342.81445 945.02539 C 369.86386 881.09039 393.52552 839.75204 413.8125 821.00195 C 434.09982 802.25156 472.39008 779.49185 528.64062 752.75 C 584.8912 726.00784 642.21098 699.4092 700.61328 672.97461 z " />
</svg>
